X:6
T:Janine Randall
R:slow march
C:Brenda Stubbert
S:Tune of the Month. August,1998.
D:Some Tasty Tunes, Brenda Stubbert, 1999
A:<http://www.capebretonet.com/Music/Stubbert>
O:20th Century Cape Breton
N:Contacts ...
N:Recordings and bookings
N:..... <brenda@cranfordpub.com>
N:Tune books and related recordings
N:..... Cranford Publications <http://www.cranfordpub.com>
B:Previously Unpublished.
H:Copyrights:published by Stubbert Music (SOCAN)
Z:This abc transcription is for personal use only,
Z:provided this notice remains attached.
Z:Used by permission of the composer and publisher.
Z:Paul Stewart Cranford - psc@cranfordpub.com
Q:222
L:1/8
M:C|
K:Gdor
"G dorian"c2|d2 cA G2 Ac|d2 ge fdcA|G2 AG F2 Ac|d2 fd edcA|!
d2 cA G2 Ac|d2 ge fdcA|FGAc d2 cA|d2 G2 G2:|!
|:Ac|dG G/G/G g2 fe|fage fdcA|B2AG F2 Ac|d2ge fdcA|!
[1 dG G/G/G g2 fe|fage fdcA|FGAc d2cA|d2 G2 G2:|!
[2 d2 cA G2 Ac|d2 ge fdcA|FGAc d2 cA|d2 G2 G2|]!

